icons/ball-pen-line.svg

<svg xmlns="http://www.w3.org/2000/svg" width="24" height="24" fill="none"><g clip-path="url(#a)"><g><path fill="#121212" d="M17.849 11.808L17.142 11.101L7.242 21.001H3V16.758L14.313 5.44403L19.97 11.101C20.1575 11.2886 20.2628 11.5429 20.2628 11.808C20.2628 12.0732 20.1575 12.3275 19.97 12.515L12.9 19.586L11.485 18.172L17.849 11.808ZM15.728 9.68703L14.313 8.27303L5 17.586V19.001H6.414L15.728 9.68703ZM18.556 2.61603L21.385 5.44403C21.5725 5.63156 21.6778 5.88586 21.6778 6.15103C21.6778 6.41619 21.5725 6.6705 21.385 6.85803L19.97 8.27303L15.728 4.03003L17.142 2.61603C17.3295 2.42856 17.5838 2.32324 17.849 2.32324C18.1142 2.32324 18.3685 2.42856 18.556 2.61603Z"/></g></g><defs><clipPath id="a"><rect width="24" height="24" fill="white"/></clipPath></defs></svg>

<svg width="24" height="24" fill="none" xmlns="http://www.w3.org/2000/svg"><g clip-path="url(#a)"><path d="m17.849 11.808-.707-.707-9.9 9.9H3v-4.243L14.313 5.444l5.657 5.657a1 1 0 0 1 0 1.414l-7.07 7.071-1.415-1.414 6.364-6.364Zm-2.121-2.121-1.415-1.414L5 17.586v1.415h1.414l9.314-9.314Zm2.828-7.071 2.829 2.828a1 1 0 0 1 0 1.414L19.97 8.273 15.728 4.03l1.414-1.414a1 1 0 0 1 1.414 0Z" /></g><defs><clipPath id="a"><path fill="#fff" d="M0 0h24v24H0z"/></clipPath></defs></svg>
